assets/5_spades.svg

<svg width="822" height="1122" fill="none" xmlns="http://www.w3.org/2000/svg"><rect width="822" height="1122" rx="50" fill="#F1F7EE"/><path d="M189.302 1085.5v-4.9c0-1 .5-1.5 1.5-1.5h5.3v-51.9h-5.2c-1 0-1.5-.5-1.5-1.5v-5.1c0-1.07.5-1.6 1.5-1.6 8-.33 15.6-.5 22.8-.5 7.2 0 12.934 1.4 17.2 4.2 4.334 2.73 6.5 6.67 6.5 11.8 0 3.73-1.166 7-3.5 9.8-2.266 2.73-4.966 4.73-8.1 6 5.134.8 9.034 2.7 11.7 5.7 2.734 3 4.1 6.67 4.1 11 0 5.67-2.1 10.27-6.3 13.8-4.2 3.47-9.766 5.43-16.7 5.9-2.866.2-7.466.3-13.8.3h-14c-1 0-1.5-.5-1.5-1.5Zm18-30v23.8h4.5c5.867 0 10.4-.93 13.6-2.8 3.267-1.87 4.9-5.1 4.9-9.7 0-7.53-5.266-11.3-15.8-11.3h-7.2Zm0-28.9v20.6h3.8c9.867 0 14.8-3.43 14.8-10.3 0-3.87-1.2-6.53-3.6-8-2.4-1.53-5.833-2.3-10.3-2.3h-4.7Zm87.792 52.5h4.4c1 0 1.5.5 1.5 1.5v4.9c0 1-.5 1.5-1.5 1.5h-11.2c-.8 0-1.3-.5-1.5-1.5l-.9-5.6c-4.267 5.53-9.867 8.3-16.8 8.3-10.8 0-16.2-5.67-16.2-17v-25.5h-5.3c-1 0-1.5-.5-1.5-1.5v-5.2c0-1 .5-1.5 1.5-1.5h15c1 0 1.5.5 1.5 1.5v29.2c0 4 .5 6.87 1.5 8.6 1.066 1.67 3.266 2.5 6.6 2.5 3.4 0 6.2-1 8.4-3s3.3-4.27 3.3-6.8v-23.8h-6.3c-1 0-1.5-.5-1.5-1.5v-5.2c0-1 .5-1.5 1.5-1.5h16c1 0 1.5.5 1.5 1.5v40.1Zm14.463-27.3c0-4.4 1.7-8.07 5.1-11 3.4-2.93 7.7-4.4 12.9-4.4s9.7.6 13.5 1.8c.933.27 1.4.87 1.4 1.8v10.6c0 1-.5 1.5-1.5 1.5h-5.8c-1.067 0-1.5-.5-1.3-1.5l.5-5.1c-2-1.07-4.2-1.6-6.6-1.6-5.333 0-8 1.87-8 5.6 0 1.93.867 3.47 2.6 4.6 1.733 1.13 3.833 2.07 6.3 2.8a81.61 81.61 0 0 1 7.4 2.4c2.533.87 4.667 2.4 6.4 4.6 1.733 2.13 2.6 4.87 2.6 8.2 0 5.07-1.767 9.03-5.3 11.9-3.533 2.8-8.5 4.2-14.9 4.2-4.467 0-9.167-.67-14.1-2-.867-.27-1.3-.9-1.3-1.9v-10.6c0-1 .5-1.5 1.5-1.5h5.8c1 0 1.467.5 1.4 1.5l-.3 5.2c1.8 1.33 4.367 2 7.7 2 5.933 0 8.9-2.1 8.9-6.3 0-2.13-.867-3.8-2.6-5-1.667-1.27-3.733-2.23-6.2-2.9a184.3 184.3 0 0 1-7.3-2.2c-2.467-.87-4.567-2.33-6.3-4.4-1.667-2.13-2.5-4.9-2.5-8.3Zm57.464-6.1v25.2c0 3.13.4 5.4 1.2 6.8.8 1.4 2.3 2.1 4.5 2.1s4.333-.47 6.4-1.4c.733-.27 1.267 0 1.6.8l1.8 4.6c.067.2.1.5.1.9 0 .33-.333.7-1 1.1-3.2 1.6-7 2.4-11.4 2.4-5.933 0-9.833-1.53-11.7-4.6-1.333-2-2.1-3.93-2.3-5.8-.267-2.53-.4-5.2-.4-8v-24.1h-5.7c-1 0-1.5-.5-1.5-1.5v-5.2c0-1 .5-1.5 1.5-1.5h5.7V1024c0-1 .5-1.5 1.5-1.5h8.2c1 0 1.5.5 1.5 1.5v13.5h10.1c1 0 1.5.5 1.5 1.5v5.2c0 1-.5 1.5-1.5 1.5h-10.1Zm69.834 11.6v-3.5c0-4.73-1.334-7.7-4-8.9-1.267-.53-3.1-.8-5.5-.8-4.534 0-7.267 2.13-8.2 6.4-.2 1-.7 1.5-1.5 1.5h-6.4c-1.067 0-1.534-.5-1.4-1.5.266-4.87 2.233-8.43 5.9-10.7 3.666-2.27 8.333-3.4 14-3.4 11.933 0 17.9 5.47 17.9 16.4v26.3h4.3c1 0 1.5.5 1.5 1.5v4.9c0 1-.5 1.5-1.5 1.5h-11.8c-.867 0-1.367-.5-1.5-1.5l-.7-4.6c-3.6 4.87-8.8 7.3-15.6 7.3-4.267 0-7.8-1.1-10.6-3.3-2.8-2.27-4.2-5.87-4.2-10.8 0-6.47 2.7-10.9 8.1-13.3 4.466-2.07 9.8-3.2 16-3.4 1.266 0 3-.03 5.2-.1Zm.2 14.6v-7.7c-6.4 0-10.334.3-11.8.9-1.467.6-2.767 1.2-3.9 1.8-2.134 1.13-3.2 3.2-3.2 6.2 0 4.6 2.633 6.9 7.9 6.9 3.466 0 6.166-.8 8.1-2.4 1.933-1.67 2.9-3.57 2.9-5.7Zm60.061-32.9v52.1c0 13.27-5.9 19.9-17.7 19.9-5.067 0-9.067-.7-12-2.1-.6-.33-.9-.7-.9-1.1 0-.33.033-.63.1-.9l2-5.5c.333-.87.966-1.13 1.9-.8 2.2.8 4.533 1.2 7 1.2 5.6 0 8.4-3.9 8.4-11.7v-44.4h-5.4c-1 0-1.5-.5-1.5-1.5v-5.2c0-1 .5-1.5 1.5-1.5h15.1c1 0 1.5.5 1.5 1.5Zm-12.1-10.4c-1.267-1.33-1.9-3.03-1.9-5.1s.633-3.77 1.9-5.1c1.333-1.4 3.066-2.1 5.2-2.1 2.2 0 3.933.7 5.2 2.1 1.333 1.33 2 3.03 2 5.1s-.667 3.77-2 5.1c-1.334 1.33-3.1 2-5.3 2-2.134 0-3.834-.67-5.1-2Zm41.006 50.5h6.3c1 0 1.5.5 1.5 1.5v4.9c0 1-.5 1.5-1.5 1.5h-23.8c-1 0-1.5-.5-1.5-1.5v-4.9c0-1 .5-1.5 1.5-1.5h6.3v-33.4h-5.4c-1 0-1.5-.5-1.5-1.5v-5.2c0-1 .5-1.5 1.5-1.5h15.1c1 0 1.5.5 1.5 1.5v40.1Zm-12.1-50.5c-1.267-1.33-1.9-3.03-1.9-5.1s.633-3.77 1.9-5.1c1.333-1.4 3.067-2.1 5.2-2.1 2.2 0 3.933.7 5.2 2.1 1.333 1.33 2 3.03 2 5.1s-.667 3.77-2 5.1c-1.333 1.33-3.1 2-5.3 2-2.133 0-3.833-.67-5.1-2Zm37.394 10.3 11.6 37 10.5-30.2h-5.1c-1 0-1.5-.5-1.5-1.5v-5.2c0-1 .5-1.5 1.5-1.5h14.6c.8 0 1.334.23 1.6.7.267.47.4.9.4 1.3 0 .33-.066.67-.2 1l-17.1 45.1c-.266.93-.933 1.4-2 1.4h-8.6c-.933 0-1.6-.47-2-1.4l-13.7-39.9h-5c-1 0-1.5-.5-1.5-1.5v-5.2c0-1 .5-1.5 1.5-1.5h13.1c1 0 1.634.47 1.9 1.4Zm61.856 49.3c-7.933 0-13.767-2.3-17.5-6.9-3.667-4.67-5.5-10.8-5.5-18.4 0-7.67 1.967-14 5.9-19 3.933-5 9.6-7.5 17-7.5 3.667 0 6.8.7 9.4 2.1 2.667 1.33 4.7 3.17 6.1 5.5 2.667 4.53 4 9.77 4 15.7 0 2.8-.133 4.33-.4 4.6-.267.27-.767.4-1.5.4h-29.4c.333 4.8 1.5 8.53 3.5 11.2 2.067 2.6 5.6 3.9 10.6 3.9 3.667 0 7.433-.87 11.3-2.6.933-.47 1.6-.2 2 .8l1.9 4.6c.333.8.033 1.47-.9 2-4.4 2.4-9.9 3.6-16.5 3.6Zm-11.9-30.9h20.8c.133-8.33-3.133-12.5-9.8-12.5-3.933 0-6.733 1.27-8.4 3.8-1.6 2.47-2.467 5.37-2.6 8.7ZM179.709 95.5h-68.1l-6.3 44.7c9.4-5.4 19.5-8.1 30.3-8.1 15.8 0 28.7 5.2 38.7 15.6 10.2 10.4 15.3 26 15.3 46.8 0 20.6-6 37-18 49.2-12 12.4-28.6 18.6-49.8 18.6-38 0-57.9-17-59.7-51 0-2.2.3-3.7.9-4.5.8-.8 2.3-1.2 4.5-1.2h17.7c2.2 0 3.7.4 4.5 1.2.8.8 1.4 2.3 1.8 4.5 1.6 17.4 11.5 26.1 29.7 26.1 23.2 0 34.8-13.2 34.8-39.6 0-26.6-10.5-39.9-31.5-39.9-10.2 0-19.8 3.4-28.8 10.2-2 1.4-3.9 2.1-5.7 2.1-1.6 0-3.1-.3-4.5-.9l-3.3-1.5c-2.2-1-3.6-1.9-4.2-2.7-.4-1-.5-2.7-.3-5.1l9.9-87.6c.4-2.2 1-3.7 1.8-4.5.8-.8 2.3-1.2 4.5-1.2h85.8c2.2 0 3.7.4 4.5 1.2.8.8 1.2 2.3 1.2 4.5v17.4c0 2.2-.4 3.7-1.2 4.5-.8.8-2.3 1.2-4.5 1.2Z" fill="#000"/><path d="M263.605 655.873a94.209 94.209 0 0 0 30.565 20.375 94.417 94.417 0 0 0 72.115 0 94.187 94.187 0 0 0 30.565-20.375l18.155-18.105 18.154 18.105c17.669 17.622 41.634 27.521 66.622 27.521 24.989 0 48.954-9.899 66.623-27.521A93.834 93.834 0 0 0 594 589.431c0-24.92-9.927-48.82-27.596-66.442l-18.154-18.105-119.122-118.799c-7.806-7.785-20.44-7.785-28.246 0L281.759 504.884l-18.154 18.105a93.929 93.929 0 0 0-20.43 30.482 93.717 93.717 0 0 0 0 71.92 93.929 93.929 0 0 0 20.43 30.482ZM411.479 686.897l-60.03 59.557c-3.169 3.144-.942 8.549 3.522 8.549H475.03c4.464 0 6.69-5.405 3.521-8.549l-60.029-59.557a5 5 0 0 0-7.043 0Z" fill="#231F20"/><mask id="a" style="mask-type:alpha" maskUnits="userSpaceOnUse" x="236" y="379" width="179" height="376"><path fill="#D9D9D9" d="M236 379h179v376H236z"/></mask><g mask="url(#a)" fill="#393335"><path d="m411.479 686.897-60.03 59.557c-3.169 3.144-.942 8.549 3.522 8.549H475.03c4.464 0 6.69-5.405 3.521-8.549l-60.029-59.557a5 5 0 0 0-7.043 0ZM263.605 655.873a94.209 94.209 0 0 0 30.565 20.375 94.417 94.417 0 0 0 72.115 0 94.187 94.187 0 0 0 30.565-20.375l18.155-18.105 18.154 18.105c17.669 17.622 41.634 27.521 66.622 27.521 24.989 0 48.954-9.899 66.623-27.521A93.834 93.834 0 0 0 594 589.431c0-24.92-9.927-48.82-27.596-66.442l-18.154-18.105-119.122-118.799c-7.806-7.785-20.44-7.785-28.246 0L281.759 504.884l-18.154 18.105a93.929 93.929 0 0 0-20.43 30.482 93.717 93.717 0 0 0 0 71.92 93.929 93.929 0 0 0 20.43 30.482Z"/></g><path d="M91.711 402.294a26.324 26.324 0 0 0 8.538 5.692 26.38 26.38 0 0 0 20.144 0 26.32 26.32 0 0 0 8.537-5.692l5.071-5.057 5.071 5.057a26.353 26.353 0 0 0 18.61 7.688c6.98 0 13.674-2.765 18.61-7.688A26.212 26.212 0 0 0 184 383.735a26.212 26.212 0 0 0-7.708-18.559l-5.071-5.057-33.689-33.598a5 5 0 0 0-7.061 0l-33.689 33.598-5.071 5.057a26.24 26.24 0 0 0-5.707 8.514 26.182 26.182 0 0 0 5.707 28.604ZM132.592 411.382l-15.303 15.183c-1.268 1.257-.377 3.419 1.408 3.419h30.607c1.785 0 2.676-2.162 1.408-3.419l-15.303-15.183a1.999 1.999 0 0 0-2.817 0Z" fill="#231F20"/><mask id="b" style="mask-type:alpha" maskUnits="userSpaceOnUse" x="84" y="324" width="50" height="106"><path fill="#D9D9D9" d="M84 324.955h50v105.028H84z"/></mask><g mask="url(#b)" fill="#393335"><path d="m132.592 411.382-15.303 15.183c-1.268 1.257-.377 3.419 1.408 3.419h30.607c1.785 0 2.676-2.162 1.408-3.419l-15.303-15.183a1.999 1.999 0 0 0-2.817 0ZM91.711 402.294a26.324 26.324 0 0 0 8.538 5.692 26.38 26.38 0 0 0 20.144 0 26.32 26.32 0 0 0 8.537-5.692l5.071-5.057 5.071 5.057a26.353 26.353 0 0 0 18.61 7.688c6.98 0 13.674-2.765 18.61-7.688A26.212 26.212 0 0 0 184 383.735a26.212 26.212 0 0 0-7.708-18.559l-5.071-5.057-33.689-33.598a5 5 0 0 0-7.061 0l-33.689 33.598-5.071 5.057a26.24 26.24 0 0 0-5.707 8.514 26.182 26.182 0 0 0 5.707 28.604Z"/></g></svg>

<svg width="822" height="1122" viewBox="0 0 822 1122" fill="none" xmlns="http://www.w3.org/2000/svg">
<rect width="822" height="1122" rx="50" fill="#F1F7EE"/>
<path d="M189.302 1085.5V1080.6C189.302 1079.6 189.802 1079.1 190.802 1079.1H196.102V1027.2H190.902C189.902 1027.2 189.402 1026.7 189.402 1025.7V1020.6C189.402 1019.53 189.902 1019 190.902 1019C198.902 1018.67 206.502 1018.5 213.702 1018.5C220.902 1018.5 226.636 1019.9 230.902 1022.7C235.236 1025.43 237.402 1029.37 237.402 1034.5C237.402 1038.23 236.236 1041.5 233.902 1044.3C231.636 1047.03 228.936 1049.03 225.802 1050.3C230.936 1051.1 234.836 1053 237.502 1056C240.236 1059 241.602 1062.67 241.602 1067C241.602 1072.67 239.502 1077.27 235.302 1080.8C231.102 1084.27 225.536 1086.23 218.602 1086.7C215.736 1086.9 211.136 1087 204.802 1087H190.802C189.802 1087 189.302 1086.5 189.302 1085.5ZM207.302 1055.5V1079.3H211.802C217.669 1079.3 222.202 1078.37 225.402 1076.5C228.669 1074.63 230.302 1071.4 230.302 1066.8C230.302 1059.27 225.036 1055.5 214.502 1055.5H207.302ZM207.302 1026.6V1047.2H211.102C220.969 1047.2 225.902 1043.77 225.902 1036.9C225.902 1033.03 224.702 1030.37 222.302 1028.9C219.902 1027.37 216.469 1026.6 212.002 1026.6H207.302ZM295.094 1079.1H299.494C300.494 1079.1 300.994 1079.6 300.994 1080.6V1085.5C300.994 1086.5 300.494 1087 299.494 1087H288.294C287.494 1087 286.994 1086.5 286.794 1085.5L285.894 1079.9C281.627 1085.43 276.027 1088.2 269.094 1088.2C258.294 1088.2 252.894 1082.53 252.894 1071.2V1045.7H247.594C246.594 1045.7 246.094 1045.2 246.094 1044.2V1039C246.094 1038 246.594 1037.5 247.594 1037.5H262.594C263.594 1037.5 264.094 1038 264.094 1039V1068.2C264.094 1072.2 264.594 1075.07 265.594 1076.8C266.66 1078.47 268.86 1079.3 272.194 1079.3C275.594 1079.3 278.394 1078.3 280.594 1076.3C282.794 1074.3 283.894 1072.03 283.894 1069.5V1045.7H277.594C276.594 1045.7 276.094 1045.2 276.094 1044.2V1039C276.094 1038 276.594 1037.5 277.594 1037.5H293.594C294.594 1037.5 295.094 1038 295.094 1039V1079.1ZM309.557 1051.8C309.557 1047.4 311.257 1043.73 314.657 1040.8C318.057 1037.87 322.357 1036.4 327.557 1036.4C332.757 1036.4 337.257 1037 341.057 1038.2C341.99 1038.47 342.457 1039.07 342.457 1040V1050.6C342.457 1051.6 341.957 1052.1 340.957 1052.1H335.157C334.09 1052.1 333.657 1051.6 333.857 1050.6L334.357 1045.5C332.357 1044.43 330.157 1043.9 327.757 1043.9C322.424 1043.9 319.757 1045.77 319.757 1049.5C319.757 1051.43 320.624 1052.97 322.357 1054.1C324.09 1055.23 326.19 1056.17 328.657 1056.9C331.124 1057.57 333.59 1058.37 336.057 1059.3C338.59 1060.17 340.724 1061.7 342.457 1063.9C344.19 1066.03 345.057 1068.77 345.057 1072.1C345.057 1077.17 343.29 1081.13 339.757 1084C336.224 1086.8 331.257 1088.2 324.857 1088.2C320.39 1088.2 315.69 1087.53 310.757 1086.2C309.89 1085.93 309.457 1085.3 309.457 1084.3V1073.7C309.457 1072.7 309.957 1072.2 310.957 1072.2H316.757C317.757 1072.2 318.224 1072.7 318.157 1073.7L317.857 1078.9C319.657 1080.23 322.224 1080.9 325.557 1080.9C331.49 1080.9 334.457 1078.8 334.457 1074.6C334.457 1072.47 333.59 1070.8 331.857 1069.6C330.19 1068.33 328.124 1067.37 325.657 1066.7C323.257 1066.03 320.824 1065.3 318.357 1064.5C315.89 1063.63 313.79 1062.17 312.057 1060.1C310.39 1057.97 309.557 1055.2 309.557 1051.8ZM367.021 1045.7V1070.9C367.021 1074.03 367.421 1076.3 368.221 1077.7C369.021 1079.1 370.521 1079.8 372.721 1079.8C374.921 1079.8 377.054 1079.33 379.121 1078.4C379.854 1078.13 380.388 1078.4 380.721 1079.2L382.521 1083.8C382.588 1084 382.621 1084.3 382.621 1084.7C382.621 1085.03 382.288 1085.4 381.621 1085.8C378.421 1087.4 374.621 1088.2 370.221 1088.2C364.288 1088.2 360.388 1086.67 358.521 1083.6C357.188 1081.6 356.421 1079.67 356.221 1077.8C355.954 1075.27 355.821 1072.6 355.821 1069.8V1045.7H350.121C349.121 1045.7 348.621 1045.2 348.621 1044.2V1039C348.621 1038 349.121 1037.5 350.121 1037.5H355.821V1024C355.821 1023 356.321 1022.5 357.321 1022.5H365.521C366.521 1022.5 367.021 1023 367.021 1024V1037.5H377.121C378.121 1037.5 378.621 1038 378.621 1039V1044.2C378.621 1045.2 378.121 1045.7 377.121 1045.7H367.021ZM436.855 1057.3V1053.8C436.855 1049.07 435.521 1046.1 432.855 1044.9C431.588 1044.37 429.755 1044.1 427.355 1044.1C422.821 1044.1 420.088 1046.23 419.155 1050.5C418.955 1051.5 418.455 1052 417.655 1052H411.255C410.188 1052 409.721 1051.5 409.855 1050.5C410.121 1045.63 412.088 1042.07 415.755 1039.8C419.421 1037.53 424.088 1036.4 429.755 1036.4C441.688 1036.4 447.655 1041.87 447.655 1052.8V1079.1H451.955C452.955 1079.1 453.455 1079.6 453.455 1080.6V1085.5C453.455 1086.5 452.955 1087 451.955 1087H440.155C439.288 1087 438.788 1086.5 438.655 1085.5L437.955 1080.9C434.355 1085.77 429.155 1088.2 422.355 1088.2C418.088 1088.2 414.555 1087.1 411.755 1084.9C408.955 1082.63 407.555 1079.03 407.555 1074.1C407.555 1067.63 410.255 1063.2 415.655 1060.8C420.121 1058.73 425.455 1057.6 431.655 1057.4C432.921 1057.4 434.655 1057.37 436.855 1057.3ZM437.055 1071.9V1064.2C430.655 1064.2 426.721 1064.5 425.255 1065.1C423.788 1065.7 422.488 1066.3 421.355 1066.9C419.221 1068.03 418.155 1070.1 418.155 1073.1C418.155 1077.7 420.788 1080 426.055 1080C429.521 1080 432.221 1079.2 434.155 1077.6C436.088 1075.93 437.055 1074.03 437.055 1071.9ZM497.116 1039V1091.1C497.116 1104.37 491.216 1111 479.416 1111C474.349 1111 470.349 1110.3 467.416 1108.9C466.816 1108.57 466.516 1108.2 466.516 1107.8C466.516 1107.47 466.549 1107.17 466.616 1106.9L468.616 1101.4C468.949 1100.53 469.582 1100.27 470.516 1100.6C472.716 1101.4 475.049 1101.8 477.516 1101.8C483.116 1101.8 485.916 1097.9 485.916 1090.1V1045.7H480.516C479.516 1045.7 479.016 1045.2 479.016 1044.2V1039C479.016 1038 479.516 1037.5 480.516 1037.5H495.616C496.616 1037.5 497.116 1038 497.116 1039ZM485.016 1028.6C483.749 1027.27 483.116 1025.57 483.116 1023.5C483.116 1021.43 483.749 1019.73 485.016 1018.4C486.349 1017 488.082 1016.3 490.216 1016.3C492.416 1016.3 494.149 1017 495.416 1018.4C496.749 1019.73 497.416 1021.43 497.416 1023.5C497.416 1025.57 496.749 1027.27 495.416 1028.6C494.082 1029.93 492.316 1030.6 490.116 1030.6C487.982 1030.6 486.282 1029.93 485.016 1028.6ZM526.022 1079.1H532.322C533.322 1079.1 533.822 1079.6 533.822 1080.6V1085.5C533.822 1086.5 533.322 1087 532.322 1087H508.522C507.522 1087 507.022 1086.5 507.022 1085.5V1080.6C507.022 1079.6 507.522 1079.1 508.522 1079.1C508.522 1079.1 510.622 1079.1 514.822 1079.1V1045.7H509.422C508.422 1045.7 507.922 1045.2 507.922 1044.2V1039C507.922 1038 508.422 1037.5 509.422 1037.5H524.522C525.522 1037.5 526.022 1038 526.022 1039V1079.1ZM513.922 1028.6C512.655 1027.27 512.022 1025.57 512.022 1023.5C512.022 1021.43 512.655 1019.73 513.922 1018.4C515.255 1017 516.989 1016.3 519.122 1016.3C521.322 1016.3 523.055 1017 524.322 1018.4C525.655 1019.73 526.322 1021.43 526.322 1023.5C526.322 1025.57 525.655 1027.27 524.322 1028.6C522.989 1029.93 521.222 1030.6 519.022 1030.6C516.889 1030.6 515.189 1029.93 513.922 1028.6ZM551.316 1038.9L562.916 1075.9L573.416 1045.7H568.316C567.316 1045.7 566.816 1045.2 566.816 1044.2V1039C566.816 1038 567.316 1037.5 568.316 1037.5H582.916C583.716 1037.5 584.25 1037.73 584.516 1038.2C584.783 1038.67 584.916 1039.1 584.916 1039.5C584.916 1039.83 584.85 1040.17 584.716 1040.5L567.616 1085.6C567.35 1086.53 566.683 1087 565.616 1087H557.016C556.083 1087 555.416 1086.53 555.016 1085.6L541.316 1045.7H536.316C535.316 1045.7 534.816 1045.2 534.816 1044.2V1039C534.816 1038 535.316 1037.5 536.316 1037.5H549.416C550.416 1037.5 551.05 1037.97 551.316 1038.9ZM613.172 1088.2C605.239 1088.2 599.405 1085.9 595.672 1081.3C592.005 1076.63 590.172 1070.5 590.172 1062.9C590.172 1055.23 592.139 1048.9 596.072 1043.9C600.005 1038.9 605.672 1036.4 613.072 1036.4C616.739 1036.4 619.872 1037.1 622.472 1038.5C625.139 1039.83 627.172 1041.67 628.572 1044C631.239 1048.53 632.572 1053.77 632.572 1059.7C632.572 1062.5 632.439 1064.03 632.172 1064.3C631.905 1064.57 631.405 1064.7 630.672 1064.7H601.272C601.605 1069.5 602.772 1073.23 604.772 1075.9C606.839 1078.5 610.372 1079.8 615.372 1079.8C619.039 1079.8 622.805 1078.93 626.672 1077.2C627.605 1076.73 628.272 1077 628.672 1078L630.572 1082.6C630.905 1083.4 630.605 1084.07 629.672 1084.6C625.272 1087 619.772 1088.2 613.172 1088.2ZM601.272 1057.3H622.072C622.205 1048.97 618.939 1044.8 612.272 1044.8C608.339 1044.8 605.539 1046.07 603.872 1048.6C602.272 1051.07 601.405 1053.97 601.272 1057.3Z" fill="black"/>
<path d="M179.709 95.5H111.609L105.309 140.2C114.709 134.8 124.809 132.1 135.609 132.1C151.409 132.1 164.309 137.3 174.309 147.7C184.509 158.1 189.609 173.7 189.609 194.5C189.609 215.1 183.609 231.5 171.609 243.7C159.609 256.1 143.009 262.3 121.809 262.3C83.8086 262.3 63.9086 245.3 62.1086 211.3C62.1086 209.1 62.4086 207.6 63.0086 206.8C63.8086 206 65.3086 205.6 67.5086 205.6H85.2086C87.4086 205.6 88.9086 206 89.7086 206.8C90.5086 207.6 91.1086 209.1 91.5086 211.3C93.1086 228.7 103.009 237.4 121.209 237.4C144.409 237.4 156.009 224.2 156.009 197.8C156.009 171.2 145.509 157.9 124.509 157.9C114.309 157.9 104.709 161.3 95.7086 168.1C93.7086 169.5 91.8086 170.2 90.0086 170.2C88.4086 170.2 86.9086 169.9 85.5086 169.3L82.2086 167.8C80.0086 166.8 78.6086 165.9 78.0086 165.1C77.6086 164.1 77.5086 162.4 77.7086 160L87.6086 72.4C88.0086 70.2 88.6086 68.7 89.4086 67.9C90.2086 67.1 91.7086 66.7 93.9086 66.7H179.709C181.909 66.7 183.409 67.1 184.209 67.9C185.009 68.7 185.409 70.2 185.409 72.4V89.8C185.409 92 185.009 93.5 184.209 94.3C183.409 95.1 181.909 95.5 179.709 95.5Z" fill="black"/>
<path d="M263.605 655.873C272.353 664.601 282.739 671.525 294.17 676.248C305.602 680.972 317.854 683.403 330.228 683.403C342.602 683.403 354.854 680.972 366.285 676.248C377.717 671.525 388.103 664.601 396.85 655.873L415.005 637.768L433.159 655.873C450.828 673.495 474.793 683.394 499.781 683.394C524.77 683.394 548.735 673.495 566.404 655.873C584.073 638.252 594 614.352 594 589.431C594 564.511 584.073 540.611 566.404 522.989L548.25 504.884L429.128 386.085C421.322 378.3 408.688 378.3 400.882 386.085L281.759 504.884L263.605 522.989C254.854 531.713 247.911 542.071 243.175 553.471C238.438 564.872 236 577.091 236 589.431C236 601.771 238.438 613.991 243.175 625.391C247.911 636.791 254.854 647.149 263.605 655.873Z" fill="#231F20"/>
<path d="M411.479 686.897L351.449 746.454C348.28 749.598 350.507 755.003 354.971 755.003H475.03C479.494 755.003 481.72 749.598 478.551 746.454L418.522 686.897C416.572 684.963 413.428 684.963 411.479 686.897Z" fill="#231F20"/>
<mask id="mask0_1023_4899" style="mask-type:alpha" maskUnits="userSpaceOnUse" x="236" y="379" width="179" height="376">
<rect x="236" y="379" width="179" height="376" fill="#D9D9D9"/>
</mask>
<g mask="url(#mask0_1023_4899)">
<path d="M411.479 686.897L351.449 746.454C348.28 749.598 350.507 755.003 354.971 755.003H475.03C479.494 755.003 481.72 749.598 478.551 746.454L418.522 686.897C416.572 684.963 413.428 684.963 411.479 686.897Z" fill="#393335"/>
<path d="M263.605 655.873C272.353 664.601 282.739 671.525 294.17 676.248C305.602 680.972 317.854 683.403 330.228 683.403C342.602 683.403 354.854 680.972 366.285 676.248C377.717 671.525 388.103 664.601 396.85 655.873L415.005 637.768L433.159 655.873C450.828 673.495 474.793 683.394 499.781 683.394C524.77 683.394 548.735 673.495 566.404 655.873C584.073 638.252 594 614.352 594 589.431C594 564.511 584.073 540.611 566.404 522.989L548.25 504.884L429.128 386.085C421.322 378.3 408.688 378.3 400.882 386.085L281.759 504.884L263.605 522.989C254.854 531.713 247.911 542.071 243.175 553.471C238.438 564.872 236 577.091 236 589.431C236 601.771 238.438 613.991 243.175 625.391C247.911 636.791 254.854 647.149 263.605 655.873Z" fill="#393335"/>
</g>
<path d="M91.711 402.294C94.1544 404.732 97.0556 406.666 100.249 407.986C103.442 409.305 106.864 409.984 110.321 409.984C113.777 409.984 117.199 409.305 120.393 407.986C123.586 406.666 126.487 404.732 128.93 402.294L134.001 397.237L139.072 402.294C144.008 407.217 150.702 409.982 157.682 409.982C164.662 409.982 171.356 407.217 176.292 402.294C181.227 397.372 184 390.696 184 383.735C184 376.774 181.227 370.098 176.292 365.176L171.221 360.119L137.532 326.521C135.581 324.575 132.422 324.575 130.471 326.521L96.782 360.119L91.711 365.176C89.2664 367.613 87.3272 370.506 86.0041 373.69C84.681 376.875 84 380.288 84 383.735C84 387.182 84.681 390.595 86.0041 393.78C87.3272 396.964 89.2664 399.858 91.711 402.294Z" fill="#231F20"/>
<path d="M132.592 411.382L117.289 426.565C116.021 427.822 116.912 429.984 118.697 429.984H149.304C151.089 429.984 151.98 427.822 150.712 426.565L135.409 411.382C134.629 410.608 133.372 410.608 132.592 411.382Z" fill="#231F20"/>
<mask id="mask1_1023_4899" style="mask-type:alpha" maskUnits="userSpaceOnUse" x="84" y="324" width="50" height="106">
<rect x="84" y="324.955" width="50" height="105.028" fill="#D9D9D9"/>
</mask>
<g mask="url(#mask1_1023_4899)">
<path d="M132.592 411.382L117.289 426.565C116.021 427.822 116.912 429.984 118.697 429.984H149.304C151.089 429.984 151.98 427.822 150.712 426.565L135.409 411.382C134.629 410.608 133.372 410.608 132.592 411.382Z" fill="#393335"/>
<path d="M91.711 402.294C94.1544 404.732 97.0556 406.666 100.249 407.986C103.442 409.305 106.864 409.984 110.321 409.984C113.777 409.984 117.199 409.305 120.393 407.986C123.586 406.666 126.487 404.732 128.93 402.294L134.001 397.237L139.072 402.294C144.008 407.217 150.702 409.982 157.682 409.982C164.662 409.982 171.356 407.217 176.292 402.294C181.227 397.372 184 390.696 184 383.735C184 376.774 181.227 370.098 176.292 365.176L171.221 360.119L137.532 326.521C135.581 324.575 132.422 324.575 130.471 326.521L96.782 360.119L91.711 365.176C89.2664 367.613 87.3272 370.506 86.0041 373.69C84.681 376.875 84 380.288 84 383.735C84 387.182 84.681 390.595 86.0041 393.78C87.3272 396.964 89.2664 399.858 91.711 402.294Z" fill="#393335"/>
</g>
</svg>
